!!!COM:	Ockeghem, Johannes
!!!CDT:	~1425-1497/02/06
!!!OPR:	Missa Prolationum
!!!ONM:	3
!!!OTL:	Credo
!!!AGN:	Mass; Credo
!!!SCT:	Ock1011c
!!!SCA:	Ock1011c
!!!voices:	4
!!!voices-OPR:	4
**kern	**text	**kern	**text	**kern	**text	**kern	**text
*staff4	*staff4	*staff3	*staff3	*staff2	*staff2	*staff1	*staff1
*Ivox	*	*Ivox	*	*Ivox	*	*Ivox	*
*I"Contra2	*	*I"Contra1	*	*I"Discantus2	*	*I"Discantus1	*
*I'C2	*	*I'C1	*	*I'D2	*	*I'D1	*
*>[A,B]	*>[A,B]	*>[A,B]	*>[A,B]	*>[A,B]	*>[A,B]	*>[A,B]	*>[A,B]
*>A	*>A	*>A	*>A	*>A	*>A	*>A	*>A
*clefF4	*	*clefGv2	*	*clefGv2	*	*clefG2	*
*k[b-]	*	*k[]	*	*k[b-]	*	*k[]	*
*M3/1	*	*M3/1	*	*M3/1	*	*M3/1	*
*met(O)	*	*met(O)	*	*met(O)	*	*met(O)	*
=1-	=1-	=1-	=1-	=1-	=1-	=1-	=1-
!LO:TX:X=-40:Z=8:t=Dux	!	!LO:TX:X=-40:Z=8:t=Comes	!	!LO:TX:X=-40:Z=8:t=Dux	!	!LO:TX:X=-40:Z=8:t=Comes	!
[0.F	Pa-	[0.c	Pa-	[0.f	Pa-	[0.cc	Pa-
=2	=2	=2	=2	=2	=2	=2	=2
0.F]	.	0.c_	.	1f]	.	0.cc]	.
.	.	.	.	0a	-trem	.	.
=3	=3	=3	=3	=3	=3	=3	=3
0.C	-trem	0.c]	.	1a	om-	0.ee	-trem
.	.	.	.	0g	-ni-	.	.
=4	=4	=4	=4	=4	=4	=4	=4
1.C	om-	[0.G	-trem	0g	-po-	1ee	om-
.	.	.	.	.	.	[0dd	-ni-
1.G	-ni-	.	.	.	.	.	.
.	.	.	.	[1d	-ten-	.	.
=5	=5	=5	=5	=5	=5	=5	=5
0.r	.	1.G]	.	1d]	.	1dd]	.
.	.	.	.	0g	-tem	[0dd	-po-
.	.	1.G	om-	.	.	.	.
=6	=6	=6	=6	=6	=6	=6	=6
0.D	-po-	0.d	-ni-	1.f	fac-	1dd]	.
.	.	.	.	.	.	[0a	-ten-
.	.	.	.	4e\	.	.	.
.	.	.	.	4d\	.	.	.
.	.	.	.	2.d\	-to-	.	.
.	.	.	.	4c\	-rem	.	.
=7	=7	=7	=7	=7	=7	=7	=7
1A	-ten-	0.r	.	0f	ce-	1a]	.
1.B-	.	.	.	.	.	0dd	-tem
.	.	.	.	[1f	-li	.	.
2A\	.	.	.	.	.	.	.
=8	=8	=8	=8	=8	=8	=8	=8
0F	.	1r	.	1f]	.	1.cc	fac-
.	.	2r	.	0f	et	.	.
.	.	[1.A	-po-	.	.	4b\	.
.	.	.	.	.	.	4a/	.
1F	-tem	.	.	.	.	2.a/	-to-
.	.	.	.	.	.	4g/	-rem
=9	=9	=9	=9	=9	=9	=9	=9
1r	.	0.A]	.	1e	ter-	0.cc	ce-
0F	fac-	.	.	2f\	-rae	.	.
.	.	.	.	1a	vi-	.	.
.	.	.	.	2a\	-si-	.	.
=10	=10	=10	=10	=10	=10	=10	=10
1C	-to-	1e	-ten-	1g	-bi-	0.cc	-li
0F	-rem	1.f	.	1.a	-li-	.	.
.	.	2e\	.	4g\	-um	.	.
.	.	.	.	4f\	.	.	.
=11	=11	=11	=11	=11	=11	=11	=11
1A	ce-	0c	.	1e	et	0.cc	et
0A	-li~et	.	.	1.f	.	.	.
.	.	1c	-tem	.	.	.	.
.	.	.	.	4e\	in-	.	.
.	.	.	.	4f\	.	.	.
=12	=12	=12	=12	=12	=12	=12	=12
1G	ter-	1r	.	1g	-vi-	1b	ter-
0C	-rae	0c	fac-	2f\	-si-	2cc\	-rae
.	.	.	.	1e	-bi-	1ee	vi-
.	.	.	.	4d\	-li-	2ee\	-si-
.	.	.	.	4c\	.	.	.
=13	=13	=13	=13	=13	=13	=13	=13
0.r	.	1G	-to-	1Bn	-um.	1dd	-bi-
.	.	0c	-rem	1r	.	1.ee	-li-
.	.	.	.	1r	.	.	.
.	.	.	.	.	.	4dd\	-um
.	.	.	.	.	.	4cc\	.
=14	=14	=14	=14	=14	=14	=14	=14
0.r	.	1e	ce-	0.r	.	1b	et
.	.	0e	-li~et	.	.	1.cc	.
.	.	.	.	.	.	4b\	in-
.	.	.	.	.	.	4cc\	.
=15	=15	=15	=15	=15	=15	=15	=15
0.r	.	1d	ter-	0.r	.	1dd	-vi-
.	.	0G	-rae	.	.	2cc\	-si-
.	.	.	.	.	.	1b	-bi-
.	.	.	.	.	.	4a/	-li-
.	.	.	.	.	.	4g/	.
=16	=16	=16	=16	=16	=16	=16	=16
1D	Et	0.r	.	1d	Et	1f	-um.
2E\	in	.	.	2c\	in	1r	.
2.F\	u-	.	.	2d\	.	.	.
.	.	.	.	2f\	u-	1r	.
4E\	.	.	.	.	.	.	.
2C/	.	.	.	4e\	.	.	.
.	.	.	.	[4g\	.	.	.
=17	=17	=17	=17	=17	=17	=17	=17
1BB-	.	0.r	.	4g\]	.	0.r	.
.	.	.	.	4f\	.	.	.
.	.	.	.	1d	-num	.	.
1F	-num	.	.	.	.	.	.
.	.	.	.	2.f\	do-	.	.
2C/	do-	.	.	.	.	.	.
.	.	.	.	8e\L	.	.	.
.	.	.	.	8d\J	.	.	.
2F\	-mi-	.	.	2c\	-mi-	.	.
=18	=18	=18	=18	=18	=18	=18	=18
2G\	-num	0.r	.	2B-\	-num	0.r	.
1B-	Je-	.	.	2f\	Je-	.	.
.	.	.	.	2g\	-sum	.	.
2A\	-sum	.	.	1f	Chri-	.	.
1G	Chri-	.	.	.	.	.	.
.	.	.	.	2e\	.	.	.
=19	=19	=19	=19	=19	=19	=19	=19
1F	-stum	1A	fi-	1f	-stum	1a	fi-
1r	.	2B\	.	1r	.	2g/	.
.	.	2.c\	.	.	.	2a/	.
1r	.	.	.	1r	.	2cc\	.
.	.	4B\	-li-	.	.	.	.
.	.	2G/	-um	.	.	4b\	.
.	.	.	.	.	.	[4dd\	.
=20	=20	=20	=20	=20	=20	=20	=20
0.r	.	1F	de-	0.r	.	4dd\]	.
.	.	.	.	.	.	4cc\	-li-
.	.	.	.	.	.	1a	-um
.	.	1c	-i	.	.	.	.
.	.	.	.	.	.	2.cc\	de-
.	.	2G/	u-	.	.	.	.
.	.	.	.	.	.	8b/L	.
.	.	.	.	.	.	8a/J	.
.	.	2c\	-ni-	.	.	2g/	.
=21	=21	=21	=21	=21	=21	=21	=21
0.r	.	2d\	-ge-	0.r	.	2f/	-i
.	.	1f	.	.	.	2cc\	u-
.	.	.	.	.	.	2dd\	-ni-
.	.	2e\	.	.	.	1cc	-ge-
.	.	1d	-ni-	.	.	.	.
.	.	.	.	.	.	2b\	-ni-
=22	=22	=22	=22	=22	=22	=22	=22
2r	.	1c	-tum	1A	et	1cc	-tum
2F\	et-	.	.	.	.	.	.
2G\	.	1r	.	2B-\	.	1r	.
2.A\	.	.	.	2c\	.	.	.
.	.	1r	.	2.d\	.	1r	.
4F\	.	.	.	.	.	.	.
2B-\	-ex	.	.	.	.	.	.
.	.	.	.	4e\	ex	.	.
=23	=23	=23	=23	=23	=23	=23	=23
2A\	pa-	0.r	.	2f\	pa-	0.r	.
2c\	.	.	.	2e\	.	.	.
2B-\	.	.	.	2g\	.	.	.
2.A\	.	.	.	4f\	.	.	.
.	.	.	.	4e\	.	.	.
.	.	.	.	2d\	.	.	.
4F\	.	.	.	.	.	.	.
2G\	-tre	.	.	2e\	-tre	.	.
=24	=24	=24	=24	=24	=24	=24	=24
2D\	na-	0.r	.	4f\	na-	0.r	.
.	.	.	.	4d\	.	.	.
2F\	.	.	.	1d	.	.	.
1E	.	.	.	.	.	.	.
.	.	.	.	2c#i\	.	.	.
1D	-tum	.	.	1d	-tum	.	.
=25	=25	=25	=25	=25	=25	=25	=25
0.r	.	2r	.	0.r	.	1e	an-
.	.	2c\	an-	.	.	.	.
.	.	2d\	.	.	.	2f/	.
.	.	2.e\	.	.	.	2g/	.
.	.	.	.	.	.	2.a/	.
.	.	4c\	.	.	.	.	.
.	.	2f\	-te	.	.	.	.
.	.	.	.	.	.	4b\	-te
=26	=26	=26	=26	=26	=26	=26	=26
0.r	.	2e\	om-	0.r	.	2cc\	om-
.	.	2g\	.	.	.	2b\	.
.	.	2f\	.	.	.	2dd\	.
.	.	2.e\	.	.	.	4cc\	-ni-
.	.	.	.	.	.	4b\	.
.	.	.	.	.	.	2a/	-a
.	.	4c\	-ni-	.	.	.	.
.	.	2d\	-a	.	.	2b\	.
=27	=27	=27	=27	=27	=27	=27	=27
1r	.	2A/	se-	1r	.	4cc\	se-
.	.	.	.	.	.	4a/	.
.	.	2c\	.	.	.	1a	.
1r	.	1B	-cu-	1r	.	.	.
.	.	.	.	.	.	2g#i/	-cu-
1A	de-	1A	-la	1c	de-	1a	-la
=28	=28	=28	=28	=28	=28	=28	=28
2A\	-um	0.r	.	1f	.	0.r	.
1A	de	.	.	.	.	.	.
.	.	.	.	2e\	.	.	.
2A\	de-	.	.	2f\	.	.	.
2B-\	.	.	.	2g\	.	.	.
2A\	.	.	.	[2a\	.	.	.
=29	=29	=29	=29	=29	=29	=29	=29
2d\	.	0.r	.	4a\]	.	0.r	.
.	.	.	.	8g\L	.	.	.
.	.	.	.	8f\J	.	.	.
2c\	.	.	.	1e	.	.	.
1A	.	.	.	.	.	.	.
.	.	.	.	2f\	.	.	.
2B-\	.	.	.	2d\	-um	.	.
2A\	.	.	.	2c\	de	.	.
=30	=30	=30	=30	=30	=30	=30	=30
2G\	.	1r	.	1e	de-	1r	.
1c	.	.	.	.	.	.	.
.	.	1r	.	1d	.	1r	.
2Bni\	.	.	.	.	.	.	.
1c	-o	1e	lu-	1c	-o	1g	lu-
=31	=31	=31	=31	=31	=31	=31	=31
0.r	.	2e\	-men	0.r	.	1cc	.
.	.	1e	de	.	.	.	.
.	.	.	.	.	.	2b\	.
.	.	2e\	lu-	.	.	2cc\	.
.	.	2f\	.	.	.	2dd\	.
.	.	2e\	.	.	.	[2ee\	.
=32	=32	=32	=32	=32	=32	=32	=32
0.r	.	2a\	.	0.r	.	4ee\]	.
.	.	.	.	.	.	8dd\L	.
.	.	.	.	.	.	8cc\J	.
.	.	2g\	.	.	.	1b	.
.	.	1e	.	.	.	.	.
.	.	.	.	.	.	2cc\	.
.	.	2f\	.	.	.	2a/	-men
.	.	2e\	.	.	.	2g/	de
=33	=33	=33	=33	=33	=33	=33	=33
1r	.	2d\	.	0.r	.	1b	lu-
.	.	1g	.	.	.	.	.
1r	.	.	.	.	.	1a	-mi-
.	.	2f#i\	-mi-	.	.	.	.
2r	.	1g	-ne	.	.	1g	-ne
2E\	de-	.	.	.	.	.	.
=34	=34	=34	=34	=34	=34	=34	=34
2.F\	.	0.r	.	0c	de-	0.r	.
4E\	.	.	.	.	.	.	.
1C	.	.	.	.	.	.	.
1BB-	-um	.	.	1d	-um	.	.
=35	=35	=35	=35	=35	=35	=35	=35
1C	ve-	0.r	.	2c\	ve-	0.r	.
.	.	.	.	1A	.	.	.
1D	-rum	.	.	.	.	.	.
.	.	.	.	2B-\	.	.	.
2C/	de	.	.	2c\	-rum	.	.
[2F\	de-	.	.	2d\	de	.	.
=36	=36	=36	=36	=36	=36	=36	=36
2F\]	.	1r	.	2c\	de-	0.r	.
2A\	.	.	.	1f	-o	.	.
1G	-o	1r	.	.	.	.	.
.	.	.	.	2e\	ve-	.	.
2.F\	ve-	2r	.	1f	-ro	.	.
.	.	2B-i\	ge-	.	.	.	.
8E\L	.	.	.	.	.	.	.
8D\J	.	.	.	.	.	.	.
=37	=37	=37	=37	=37	=37	=37	=37
0C	.	2.c\	.	1r	.	0g	ge-
.	.	4B-i\	.	.	.	.	.
.	.	1G	.	1e	ge-	.	.
1F	-ro	1F	.	1f	.	1a	.
=38	=38	=38	=38	=38	=38	=38	=38
0.r	.	1G	.	2d\	.	2g/	.
.	.	.	.	2B-\	-ni-	1e	.
.	.	1A	-ni-	1c	-tum	.	.
.	.	.	.	.	.	2f/	.
.	.	2G/	-tum	2r	.	2g/	.
.	.	[2c\	non	2F/	non	2a/	.
=39	=39	=39	=39	=39	=39	=39	=39
2E\	ge-	2c\]	.	2G/	fac-	2g/	.
2F\	.	2e\	.	2A/	.	1cc	.
2G\	.	1d	.	1B-	.	.	.
2G\	-ni-	.	.	.	.	2b\	-ni-
[1C	-tum	2.c\	fac-	1G	.	1cc	-tum
.	.	8B/L	.	.	.	.	.
.	.	8A/J	.	.	.	.	.
=40	=40	=40	=40	=40	=40	=40	=40
1C]	.	0G	.	1c	.	1r	.
1G	.	.	.	1d	-tum	1b	non-
2.A\	non	1c	-tum	2r	.	1cc	.
.	.	.	.	[2c\	con-	.	.
4F\	.	.	.	.	.	.	.
=41	=41	=41	=41	=41	=41	=41	=41
2A\	fac-	0.r	.	2c\]	.	2a/	-fac-
2B-\	.	.	.	2d\	.	2f/	.
1G	.	.	.	1B-	.	1g	-tum
1F	-tum	.	.	1A	-sub-	2r	.
.	.	.	.	.	.	2c/	con-
=42	=42	=42	=42	=42	=42	=42	=42
0.r	.	2B\	con-	2G/	-stan-	2d/	.
.	.	2c\	-sub-	2.c\	.	2e/	-sub-
.	.	2d\	-stan-	.	.	1f	-stan-
.	.	.	.	4B-\	.	.	.
.	.	2d\	-ti-	2A/	-ti-	.	.
.	.	[1G	-a-	1B-	-a-	1d	-ti-
=43	=43	=43	=43	=43	=43	=43	=43
1C	con-	1G]	.	2c\	.	1g	-a-
.	.	.	.	2e\	-lem	.	.
1F	.	1d	.	1d	pa-	1a	-lem
2E\	-sub-	2.e\	.	[1c	-tri	2r	.
[2C/	-stan-	.	.	.	.	[2g/	pa-
.	.	4c\	.	.	.	.	.
=44	=44	=44	=44	=44	=44	=44	=44
2C/]	.	2e\	.	1c]	.	2g/]	.
2AA/	-ti-	2f\	-lem	.	.	2a/	.
1BB-	-a-	1d	pa-	1r	.	1f	.
1C	-lem	1c	-tri	1c	per	1e	-tri
=45	=45	=45	=45	=45	=45	=45	=45
2F\	pa-	0.r	.	1.d	quem	2d/	per
2G\	.	.	.	.	.	2.g/	.
2B-\	.	.	.	.	.	.	.
.	.	.	.	.	.	4f/	.
2c\	.	.	.	2e\	.	2e/	.
1A	-tri	.	.	2c\	.	1f	quem
.	.	.	.	2f\	.	.	.
=46	=46	=46	=46	=46	=46	=46	=46
1G	per	1G	per	4e\	.	2g/	om-
.	.	.	.	2e\	om-	.	.
.	.	.	.	.	.	2b-i\	.
.	.	.	.	4d\	-ni-	.	.
1F	.	1c	.	1f	-a	1a	-ni-
1G	quem	2B\	quem	2e\	fa-	[1g	-a
.	.	[2G/	om-	2d\	.	.	.
=47	=47	=47	=47	=47	=47	=47	=47
2C/	om-	2G/]	.	1g	.	1g]	.
2G\	.	2E/	.	.	.	.	.
2A\	.	1F	-ni-	2f\	.	1r	.
1c	.	.	.	2e\	.	.	.
.	.	1G	-a	1d	-cta	1g	fac-
2B-\	-ni-	.	.	.	.	.	.
=48	=48	=48	=48	=48	=48	=48	=48
2.c\	-a	2c\	fac-	2c\	sunt	1.a	.
.	.	2d\	.	2r	.	.	.
4B-\	.	.	.	.	.	.	.
2A\	fac-	2f\	.	1r	.	.	.
2G\	.	2g\	-ta	.	.	2b\	-ta
1c	-ta	1e	sunt	1r	.	2g/	sunt
.	.	.	.	.	.	2cc\	qui
=49	=49	=49	=49	=49	=49	=49	=49
1G	sunt	1d	qui	0.r	.	4b\	.
.	.	.	.	.	.	2b\	prop-
.	.	.	.	.	.	4a/	.
1r	.	1c	.	.	.	1cc	-ter
1r	.	1d	.	.	.	2b\	nos
.	.	.	.	.	.	2a/	.
=50	=50	=50	=50	=50	=50	=50	=50
0.r	.	2G/	prop-	0.r	.	1dd	ho-
.	.	2d\	-ter	.	.	.	.
.	.	2e\	nos	.	.	2cc\	.
.	.	1g	ho-	.	.	2b\	.
.	.	.	.	.	.	1a	-mi-
.	.	2f#i\	.	.	.	.	.
=51	=51	=51	=51	=51	=51	=51	=51
2r	.	2.g\	.	1r	.	2g/	-nes
1c	et	.	.	.	.	2r	.
.	.	4f\	.	.	.	.	.
.	.	2e\	.	1r	.	1r	.
2B-\	.	2d\	.	.	.	.	.
2G\	prop-	1g	-mi-	2r	.	1r	.
2A\	.	.	.	2c\	et	.	.
=52	=52	=52	=52	=52	=52	=52	=52
1B-	.	1d	-nes	2.d\	pro-	0.r	.
.	.	.	.	4e\	.	.	.
1A	-ter	1r	.	2.f\	-pter	.	.
.	.	.	.	4d\	.	.	.
2G\	nos-	1r	.	2e\	no-	.	.
2F\	-strum	.	.	2A/	-strum	.	.
=53	=53	=53	=53	=53	=53	=53	=53
1D	sa-	0.r	.	2B-\	sa-	0.r	.
.	.	.	.	1d	.	.	.
1E	.	.	.	.	.	.	.
.	.	.	.	2c#i\	-lu-	.	.
1D	-lu-	.	.	2d\	-tem	.	.
.	.	.	.	2f\	de-	.	.
=54	=54	=54	=54	=54	=54	=54	=54
1C	-tem	2r	.	1e	-scen-	1r	.
.	.	1g	de-	.	.	.	.
2E\	de-	.	.	2c\	-dit	1r	.
2F\	.	2f\	.	2d\	de	.	.
1G	.	2d\	.	1B-	ce-	2r	.
.	.	2e\	.	.	.	2g/	des-
=55	=55	=55	=55	=55	=55	=55	=55
2.F\	-scen-	1f	-scen-	1A	-lis	2.a/	-cen-
8E\L	.	.	.	.	.	4b\	.
8D\J	.	.	.	.	.	.	.
1C	-dit	1e	-dit	2r	.	2.cc\	-dit
.	.	.	.	2A/	et	.	.
.	.	.	.	.	.	4a/	de
2r	.	2d\	de	2G/	in-	2b\	ce-
2C/	de	2c\	.	2c\	-car-	2e/	.
=56	=56	=56	=56	=56	=56	=56	=56
1F	ce-	1A	ce-	2d\	-na-	2f/	-lis
.	.	.	.	1f	.	1a	et
1G	.	1B	.	.	.	.	.
.	.	.	.	2e\	.	2g/	in-
1F	.	1A	.	1f	.	2a/	.
.	.	.	.	.	.	2cc\	-car-
=57	=57	=57	=57	=57	=57	=57	=57
2r	.	1G	.	2.g\	.	1b	-na-
1G	.	.	.	.	.	.	.
.	.	.	.	8f\L	-tus	.	.
.	.	.	.	8e\J	.	.	.
.	.	2B\	.	0d	est	2g/	.
2F\	.	2c\	.	.	.	2a/	.
2D\	.	1d	.	.	.	1f	-tus
2BB-/	.	.	.	.	.	.	.
=58	=58	=58	=58	=58	=58	=58	=58
0C	.	2.c\	.	2r	.	1e	est
.	.	.	.	1G	de	.	.
.	.	8B/L	.	.	.	.	.
.	.	8A/J	.	.	.	.	.
.	.	1G	-lis	.	.	2r	.
.	.	.	.	2A/	.	2e/	de
1G	-lis	2r	.	1B-	spi-	2d/	.
.	.	2G/	de	.	.	2g/	.
=59	=59	=59	=59	=59	=59	=59	=59
2r	.	1c	ce-	1c	-ri-	2a/	.
2A\	Et	.	.	.	.	1cc	spi-
2F\	in-	1d	.	1f	.	.	.
2G\	.	.	.	.	.	2b\	-ri-
1A	-car-	1c	-lis	1e	-tu	1cc	-tu
=60	=60	=60	=60	=60	=60	=60	=60
2.B-\	-na-	2r	.	2d\	san-	2.dd\	san-
.	.	1d	et	1f	.	.	.
8A\L	-tus	.	.	.	.	8cc\L	.
8G\J	.	.	.	.	.	8b\J	.
1F	est	.	.	.	.	0a	-cto
.	.	2c\	.	4e\	.	.	.
.	.	.	.	4d\	.	.	.
1A	de	2A/	in-	1c	-cto	.	.
.	.	2F/	-car-	.	.	.	.
=61	=61	=61	=61	=61	=61	=61	=61
1.G	spi-	0G	-na-	0Bn	ex	2r	.
.	.	.	.	.	.	1d	ex
2E\	-ri-	.	.	.	.	2e/	.
1D	-tu	1d	-tus	1Bni	Ma-	1f	Ma-
=62	=62	=62	=62	=62	=62	=62	=62
1C	sanc-	2r	.	2r	.	1g	-ri-
.	.	2e\	de	1c	-ri-	.	.
1C	-to	2c\	spi-	.	.	1cc	.
.	.	2d\	-ri-	2A/	.	.	.
1r	.	1e	-tu	1G	-a	1b	-a
=63	=63	=63	=63	=63	=63	=63	=63
0F	ex	2.f\	sanc-	0A	vir-	2a/	vir-
.	.	.	.	.	.	1cc	.
.	.	8e\L	.	.	.	.	.
.	.	8d\J	.	.	.	.	.
.	.	1c	-to	.	.	.	.
.	.	.	.	.	.	4b\	.
.	.	.	.	.	.	4a/	.
1G	Ma-	1e	ex	1B-	-gi-	1g	-gi-
=64	=64	=64	=64	=64	=64	=64	=64
0D	-ria	1.d	.	1A	-ne	0f#	-ne
.	.	.	.	2Bni\	et	.	.
.	.	2B\	.	1d	ho-	.	.
1r	.	1A	Ma-	.	.	1f#i	et
.	.	.	.	2c\	-mo	.	.
=65	=65	=65	=65	=65	=65	=65	=65
1G	vir-	1G	-ri-	2d\	fac-	2r	.
.	.	.	.	2.e\	.	1g	ho-
2E\	.	1G	-a	.	.	.	.
.	.	.	.	4c\	.	.	.
2C/	.	.	.	1c	-tus	2e/	.
1D	-gi-	1r	.	.	.	1d	-mo
.	.	.	.	2Bni\	.	.	.
=66	=66	=66	=66	=66	=66	=66	=66
1C	-ne	0c	vir-	1c	est	0e	fac-
2c\	et	.	.	1r	.	.	.
1c	ho-	.	.	.	.	.	.
.	.	1d	-gi-	1r	.	1f	-tus
2Bni\	-mo	.	.	.	.	.	.
=67	=67	=67	=67	=67	=67	=67	=67
1c	fac-	0A	-ne	1c	Cru-	1e	est.
1F	.	.	.	2d\	-ci-	2f/	Cru-
.	.	.	.	2.d\	-fi-	1a	.
1G	.	1r	.	.	.	.	.
.	.	.	.	4c\	.	.	.
.	.	.	.	2B-\	.	2g/	.
=68	=68	=68	=68	=68	=68	=68	=68
2F\	.	1d	et	2A/	-xus	2a/	.
2D\	.	.	.	2.d\	e-	2.b\	.
1E	-tus	2B\	ho-	.	.	.	.
.	.	.	.	4Bni\	.	4g/	-ci-
.	.	2G/	.	2c\	-ti-	1g	-fi-
1D	est	1A	.	1d	-am	.	.
.	.	.	.	.	.	2f#i/	.
=69	=69	=69	=69	=69	=69	=69	=69
2.G\	Cru-	1G	.	2r	.	1g	-xus
.	.	.	.	2c\	pro	.	.
4A\	.	.	.	.	.	.	.
2B-\	.	2g\	-mo	2d\	.	1r	.
2c\	-ci-	1g	fac-	1c	no-	.	.
1A	-fi-	.	.	.	.	1r	.
.	.	2f#i\	-tus	2A/	.	.	.
=70	=70	=70	=70	=70	=70	=70	=70
1G	-xus	1g	est	2.B-\	.	1g	e-
.	.	.	.	4c\	.	.	.
2r	.	1c	Cru-	0A	-bis	2a/	-ti-
1F	e-	.	.	.	.	2.a/	-am
.	.	1d	-ci-	.	.	.	.
.	.	.	.	.	.	4g/	.
2D\	-ti-	.	.	.	.	2f/	pro
=71	=71	=71	=71	=71	=71	=71	=71
2E\	-am	2c\	-fi-	2G/	pas-	2e/	no-
2F\	pro	2A/	-xus	2c\	.	2.a/	.
2.BB-/	no-	1B-i	e-	2d\	.	.	.
.	.	.	.	.	.	4f/	.
.	.	.	.	2B-\	.	2g/	.
8AA/L	.	.	.	.	.	.	.
8GG/J	.	.	.	.	.	.	.
2FF/	-bis	1A	-ti-	2c\	.	1a	-bis
[2F\	sub	.	.	[2A/	.	.	.
=72	=72	=72	=72	=72	=72	=72	=72
2F\]	.	2.d\	-am	4A/]	.	2r	.
.	.	.	.	4F/	.	.	.
2E\	.	.	.	2G/	.	2g/	pas-
.	.	4e\	.	.	.	.	.
2D\	Pon-	2f\	pro	2F/	.	2a/	.
2BB-/	-ti-	2g\	.	2.B-\	.	1g	.
1C	-o	1e	no-	.	.	.	.
.	.	.	.	4G/	.	.	.
.	.	.	.	2A/	-sus	2e/	.
=73	=73	=73	=73	=73	=73	=73	=73
1BB-	Pi-	1d	-bis	1B-	et	2.f/	.
.	.	.	.	.	.	4g/	.
0C	-la-	2r	.	2G/	se-	0e	-sus
.	.	1c	pas-	2A/	.	.	.
.	.	.	.	2G/	.	.	.
.	.	2A/	.	4c\	.	.	.
.	.	.	.	8d\L	.	.	.
.	.	.	.	8e\J	.	.	.
=74	=74	=74	=74	=74	=74	=74	=74
2D\	.	2B\	.	2f\	-pul-	2d/	et
2C/	-to	2c\	.	2e\	.	2g/	se-
2r	.	2.F/	.	2c\	.	2a/	-pul-
2F\	pas-	.	.	2d\	.	2f/	.
.	.	8E/L	.	.	.	.	.
.	.	8D/J	.	.	.	.	.
2E\	.	2C/	-sus	1G	.	2g/	.
[2C/	-sus	[2c\	et	.	.	[2e/	.
=75	=75	=75	=75	=75	=75	=75	=75
4C/]	.	2c\]	.	2A/	.	4e/]	.
4AA/	et	.	.	.	.	4c/	.
2BB-/	se-	2B-i\	se-	4F/	.	2d/	.
.	.	.	.	2G/	.	.	.
2C/	-pul-	2A/	-pul-	.	.	2c/	.
.	.	.	.	4A/	.	.	.
2D\	.	2F/	.	2B-\	-tus	2.f/	.
1C	-tus	1G	-tus	[1cl	est.	.	.
.	.	.	.	.	.	4d/	.
.	.	.	.	.	.	2e/	-tus
=76	=76	=76	=76	=76	=76	=76	=76
0.Fl	est.	0.Fl	est.	0.c]	.	0.fl	est.
!!LO:LB:i:g=z
=77||	=77||	=77||	=77||	=77||	=77||	=77||	=77||
*>B	*>B	*>B	*>B	*>B	*>B	*>B	*>B
*clefF4	*	*clefGv2	*	*clefGv2	*	*clefG2	*
*k[b-]	*	*k[]	*	*k[b-]	*	*k[]	*
*M2/1	*	*M2/1	*	*M2/1	*	*M2/1	*
*met(C|)	*	*met(C|)	*	*met(C|)	*	*met(C|)	*
!!section: Et resurrexit
!!!OMD: Et resurrexit
0r	.	0r	.	[0f	Et	[0cc	Et
=78	=78	=78	=78	=78	=78	=78	=78
0r	.	0r	.	0f]	.	0cc_	.
=79	=79	=79	=79	=79	=79	=79	=79
0r	.	0r	.	1e	res-	0cc]	.
.	.	.	.	1f	.	.	.
=80	=80	=80	=80	=80	=80	=80	=80
0r	.	0r	.	1d	-ur-	1b	res-
.	.	.	.	[1c	-re-	1cc	.
=81	=81	=81	=81	=81	=81	=81	=81
0r	.	0r	.	1c]	.	1a	-ur-
.	.	.	.	1B-	-xit	[1g	-re-
=82	=82	=82	=82	=82	=82	=82	=82
0r	.	0r	.	1c	ter-	1g]	.
.	.	.	.	1A	-ti-	1f	-xit
=83	=83	=83	=83	=83	=83	=83	=83
0r	.	0r	.	0G	-a	1g	ter-
.	.	.	.	.	.	[1e	-ti-
=84	=84	=84	=84	=84	=84	=84	=84
0r	.	0r	.	1c	di-	1e]	.
.	.	.	.	1d	.	[1d	-a
=85	=85	=85	=85	=85	=85	=85	=85
0r	.	0r	.	0f	-e	0d]	.
=86	=86	=86	=86	=86	=86	=86	=86
0r	.	0r	.	1e	se-	1g	di-
.	.	.	.	1c	-cun-	[1a	.
=87	=87	=87	=87	=87	=87	=87	=87
0r	.	0r	.	1d	-dum	1a]	.
.	.	.	.	[1c	scrip-	[1cc	-e
=88	=88	=88	=88	=88	=88	=88	=88
0r	.	0r	.	2c\]	.	0cc]	.
.	.	.	.	2B-\	.	.	.
.	.	.	.	1A	-tu-	.	.
=89	=89	=89	=89	=89	=89	=89	=89
0r	.	0r	.	1G	-ras	1b	se-
.	.	.	.	2r	.	1g	-cun-
.	.	.	.	[2c\	et	.	.
=90	=90	=90	=90	=90	=90	=90	=90
0r	.	0r	.	4c\]	.	1a	-dum
.	.	.	.	8d\L	.	.	.
.	.	.	.	8e\J	.	.	.
.	.	.	.	2f\	.	.	.
.	.	.	.	2g\	a-	[1g	scrip-
.	.	.	.	[2e\	-scen-	.	.
=91	=91	=91	=91	=91	=91	=91	=91
0r	.	0r	.	4e\]	.	2g/]	.
.	.	.	.	4d\	.	.	.
.	.	.	.	1d	-dit	2f/	.
.	.	.	.	.	.	1e	-tu-
.	.	.	.	2c#i\	in	.	.
=92	=92	=92	=92	=92	=92	=92	=92
0r	.	0r	.	1.d	ce-	1d	-ras
.	.	.	.	.	.	2r	.
.	.	.	.	2B-\	.	[2g/	et
=93	=93	=93	=93	=93	=93	=93	=93
0r	.	0r	.	2c\	.	4g/]	.
.	.	.	.	.	.	8a/L	.
.	.	.	.	.	.	8b/J	.
.	.	.	.	2B-\	.	2cc\	.
.	.	.	.	1G	.	2dd\	a-
.	.	.	.	.	.	[2b\	-scen-
=94	=94	=94	=94	=94	=94	=94	=94
0r	.	0r	.	2A/	.	4b\]	.
.	.	.	.	.	.	4a/	.
.	.	.	.	2c\	.	1a	-dit
.	.	.	.	1B-	.	.	.
.	.	.	.	.	.	2g/	in
=95	=95	=95	=95	=95	=95	=95	=95
0r	.	0r	.	0A	-lum	1.a	ce-
.	.	.	.	.	.	2f/	.
=96	=96	=96	=96	=96	=96	=96	=96
0r	.	0r	.	0B-	se-	2g/	.
.	.	.	.	.	.	2f/	.
.	.	.	.	.	.	1d	.
=97	=97	=97	=97	=97	=97	=97	=97
0r	.	0r	.	1c	-det	2e/	.
.	.	.	.	.	.	2g/	.
.	.	.	.	1d	ad	1f	.
=98	=98	=98	=98	=98	=98	=98	=98
0r	.	0r	.	0c	dex-	[0e	-lum
=99	=99	=99	=99	=99	=99	=99	=99
0r	.	0r	.	1c	-te-	1e]	.
.	.	.	.	1A	-ram	[1f	se-
=100	=100	=100	=100	=100	=100	=100	=100
0r	.	0r	.	1.B-	pa-	0f]	.
.	.	.	.	2A/	.	.	.
=101	=101	=101	=101	=101	=101	=101	=101
0r	.	0r	.	1G	.	1g	-det
.	.	.	.	[1F	-tris	[1a	ad
=102	=102	=102	=102	=102	=102	=102	=102
0r	.	0r	.	1F]	.	1a]	.
.	.	.	.	[1c	et	[1g	dex-
=103	=103	=103	=103	=103	=103	=103	=103
0r	.	0r	.	1c]	.	0g]	.
.	.	.	.	2B-\	i-	.	.
.	.	.	.	[2c\	.	.	.
=104	=104	=104	=104	=104	=104	=104	=104
0r	.	0r	.	4c\]	.	1g	-te-
.	.	.	.	4B-\	-te-	.	.
.	.	.	.	1G	-rum	.	.
.	.	.	.	.	.	1e	-ram
.	.	.	.	2c\	ven-	.	.
=105	=105	=105	=105	=105	=105	=105	=105
0r	.	0r	.	4B-\	-tu-	1.f	pa-
.	.	.	.	4c\	.	.	.
.	.	.	.	1d	.	.	.
.	.	.	.	2c\	.	2e/	.
=106	=106	=106	=106	=106	=106	=106	=106
0r	.	0r	.	2d\	.	0d	.
.	.	.	.	2A/	.	.	.
.	.	.	.	1Bni	-rus	.	.
=107	=107	=107	=107	=107	=107	=107	=107
0r	.	0r	.	1c	est	[0c	-tris
.	.	.	.	1r	.	.	.
=108	=108	=108	=108	=108	=108	=108	=108
0r	.	0r	.	1A	cum	1c]	.
.	.	.	.	2B-\	.	[1g	et
.	.	.	.	[2c\	glo-	.	.
=109	=109	=109	=109	=109	=109	=109	=109
0r	.	0r	.	4c\]	.	1g]	.
.	.	.	.	4B-\	.	.	.
.	.	.	.	2G/	-ri-	.	.
.	.	.	.	2A/	-a	2f/	i-
.	.	.	.	2G/	ju-	[2g/	.
=110	=110	=110	=110	=110	=110	=110	=110
0r	.	0r	.	2.B-\	.	4g/]	.
.	.	.	.	.	.	4f/	-te-
.	.	.	.	.	.	1d	-rum
.	.	.	.	4c\	-di-	.	.
.	.	.	.	2d\	-ca-	.	.
.	.	.	.	2B-\	-re	2g/	ven-
=111	=111	=111	=111	=111	=111	=111	=111
0r	.	0r	.	1c	vi-	4f/	-tu-
.	.	.	.	.	.	4g/	.
.	.	.	.	.	.	1a	.
.	.	.	.	2d\	-vos	.	.
.	.	.	.	2B-\	et	2g/	.
=112	=112	=112	=112	=112	=112	=112	=112
0r	.	0r	.	1c	mor-	2a/	.
.	.	.	.	.	.	2e/	.
.	.	.	.	1A	-tu-	1f	-rus
=113	=113	=113	=113	=113	=113	=113	=113
0r	.	0r	.	1G	-os	1g	est
.	.	.	.	1F	.	1r	.
=114	=114	=114	=114	=114	=114	=114	=114
0r	.	0r	.	2r	.	1e	cum
.	.	.	.	1A	cu-	.	.
.	.	.	.	.	.	2f/	.
.	.	.	.	2G/	-ius	[2g/	glo-
=115	=115	=115	=115	=115	=115	=115	=115
0r	.	0r	.	1B-	re-	4g/]	.
.	.	.	.	.	.	4f/	.
.	.	.	.	.	.	2d/	-ri-
.	.	.	.	2c\	.	2e/	-a
.	.	.	.	[2d\	.	2d/	ju-
=116	=116	=116	=116	=116	=116	=116	=116
0r	.	0r	.	2d\]	.	2.f/	.
.	.	.	.	1c	-gni	.	.
.	.	.	.	.	.	4g/	-di-
.	.	.	.	.	.	2a/	-ca-
.	.	.	.	[2f\	non	2f/	-re
=117	=117	=117	=117	=117	=117	=117	=117
0r	.	0r	.	2f\]	.	1g	vi-
.	.	.	.	2e\	.	.	.
.	.	.	.	2.f\	.	2a/	-vos
.	.	.	.	.	.	2f/	et
.	.	.	.	8e\L	.	.	.
.	.	.	.	8d\J	.	.	.
=118	=118	=118	=118	=118	=118	=118	=118
0r	.	0r	.	2c\	e-	1g	mor-
.	.	.	.	2B-\	.	.	.
.	.	.	.	2c\	-rit	1e	-tu-
.	.	.	.	[2c\	fi-	.	.
=119	=119	=119	=119	=119	=119	=119	=119
0r	.	0r	.	2c\]	.	1d	-os
.	.	.	.	2Bni\	.	.	.
.	.	.	.	1c	-nis	1c	.
=120	=120	=120	=120	=120	=120	=120	=120
0C	cu-	0r	.	0r	.	2r	.
.	.	.	.	.	.	1e	cu-
.	.	.	.	.	.	2d/	-ius
=121	=121	=121	=121	=121	=121	=121	=121
1D	.	0r	.	0r	.	1f	re-
1C	-ius	.	.	.	.	2g/	.
.	.	.	.	.	.	[2a/	.
=122	=122	=122	=122	=122	=122	=122	=122
2AA/	re-	0r	.	0r	.	2a/]	.
2BB-/	.	.	.	.	.	1g	-gni
1C	-gni	.	.	.	.	.	.
.	.	.	.	.	.	[2cc\	non
=123	=123	=123	=123	=123	=123	=123	=123
2F\	non	0r	.	0r	.	2cc\]	.
2G\	.	.	.	.	.	2b\	.
2.A\	.	.	.	.	.	2.cc\	.
4B-\	.	.	.	.	.	8b/L	.
.	.	.	.	.	.	8a/J	.
=124	=124	=124	=124	=124	=124	=124	=124
2c\	e-	0r	.	0r	.	2g/	e-
2d\	.	.	.	.	.	2f/	.
2B-\	.	.	.	.	.	2g/	-rit
2G\	-rit	.	.	.	.	[2g/	fi-
=125	=125	=125	=125	=125	=125	=125	=125
1A	fi-	0r	.	0r	.	2g/]	.
.	.	.	.	.	.	2f#i/	.
1G	-nis	.	.	.	.	1g	-nis
=126	=126	=126	=126	=126	=126	=126	=126
1.B-	Et	0r	.	1.d	Et	0r	.
2A\	in	.	.	2e\	.	.	.
=127	=127	=127	=127	=127	=127	=127	=127
1F	spi-	0r	.	1f	in	0r	.
1G	-ri-	.	.	2d\	.	.	.
.	.	.	.	[2e\	spi-	.	.
=128	=128	=128	=128	=128	=128	=128	=128
2D\	-tum	0r	.	4e\]	.	0r	.
.	.	.	.	4d\	.	.	.
2F\	.	.	.	1d	-ri-	.	.
1E	sanc-	.	.	.	.	.	.
.	.	.	.	2c#i\	.	.	.
=129	=129	=129	=129	=129	=129	=129	=129
1D	-tum	0r	.	0d	-tum	0r	.
2r	.	.	.	.	.	.	.
[2F\	do-	.	.	.	.	.	.
=130	=130	=130	=130	=130	=130	=130	=130
2F\]	.	0r	.	1d	sanc-	0r	.
2D\	.	.	.	.	.	.	.
1C	-mi-	.	.	1e	-tum	.	.
=131	=131	=131	=131	=131	=131	=131	=131
1D	-num	0r	.	1d	do-	0r	.
1C	.	.	.	[1g	.	.	.
=132	=132	=132	=132	=132	=132	=132	=132
0r	.	0G	et	2g\]	.	0r	.
.	.	.	.	2f\	-mi-	.	.
.	.	.	.	1d	-num	.	.
=133	=133	=133	=133	=133	=133	=133	=133
2r	.	1A	.	2c\	et	0r	.
1c	et	.	.	2f\	.	.	.
.	.	1G	in	2e\	vi-	.	.
2B-\	.	.	.	[2g\	-vi-	.	.
=134	=134	=134	=134	=134	=134	=134	=134
2c\	.	2E/	spi-	4g\]	.	0r	.
.	.	.	.	4f\	-fi-	.	.
2A\	.	2F/	-ri-	1f	-can-	.	.
1G	.	1G	-tum	.	.	.	.
.	.	.	.	2e\	.	.	.
=135	=135	=135	=135	=135	=135	=135	=135
1F	vi-	2c\	sanc-	1f	-tem	1.a	Et
.	.	2d\	.	.	.	.	.
[1c	.	2.e\	.	1r	.	.	.
.	.	.	.	.	.	2b\	.
.	.	4f\	.	.	.	.	.
=136	=136	=136	=136	=136	=136	=136	=136
1c]	.	2g\	.	0r	.	1cc	in
.	.	2a\	.	.	.	.	.
1d	-vi-	2f\	.	.	.	2a/	.
.	.	2d\	.	.	.	[2b\	spi-
=137	=137	=137	=137	=137	=137	=137	=137
2c\	-fi-	1e	.	0r	.	4b\]	.
.	.	.	.	.	.	4a/	.
2A\	.	.	.	.	.	1a	-ri-
2.B-\	.	1d	.	.	.	.	.
.	.	.	.	.	.	2g/	.
8A\L	.	.	.	.	.	.	.
8G\J	.	.	.	.	.	.	.
=138	=138	=138	=138	=138	=138	=138	=138
0F	.	1.f	.	0r	.	0a	-tum
.	.	2e\	.	.	.	.	.
=139	=139	=139	=139	=139	=139	=139	=139
1F	-can-	1c	.	1r	.	1a	sanc-
1BB-	.	1d	.	[1f	Qui	1b-i	-tum
=140	=140	=140	=140	=140	=140	=140	=140
1F	-tem	2A/	.	0f_	.	1a	do-
.	.	2c\	.	.	.	.	.
2r	.	1B-i	.	.	.	[1dd	.
2BB-/	qui	.	.	.	.	.	.
=141	=141	=141	=141	=141	=141	=141	=141
2.D\	.	1A	-tum	1f]	.	2dd\]	.
.	.	.	.	.	.	2cc\	-mi-
4E\	.	.	.	.	.	.	.
1F	.	2r	.	1f	ex	1a	-num
.	.	[2c\	do-	.	.	.	.
=142	=142	=142	=142	=142	=142	=142	=142
1C	ex	2c\]	.	2.e\	pa-	2g/	et
.	.	2A/	.	.	.	2cc\	.
.	.	.	.	4c\	.	.	.
1r	.	1G	.	2d\	.	2b\	vi-
.	.	.	.	2e\	.	[2dd\	-vi-
=143	=143	=143	=143	=143	=143	=143	=143
1c	pa-	1A	-mi-	1f	-tre	4dd\]	.
.	.	.	.	.	.	4cc\	-fi-
.	.	.	.	.	.	1cc	-can-
1d	.	1G	-num	2r	.	.	.
.	.	.	.	[2g\	fi-	2b\	.
=144	=144	=144	=144	=144	=144	=144	=144
2c\	.	0r	.	4g\]	.	1cc	-tem
.	.	.	.	4e\	.	.	.
2A\	.	.	.	2f\	.	.	.
2G\	.	.	.	2g\	.	1r	.
[2c\	.	.	.	2e\	-li-	.	.
=145	=145	=145	=145	=145	=145	=145	=145
2c\]	.	2r	.	1d	-o-	0r	.
2B-\	.	1g	et	.	.	.	.
2c\	.	.	.	1c	-que	.	.
2A\	.	2f\	vi-	.	.	.	.
=146	=146	=146	=146	=146	=146	=146	=146
1G	-tre	2g\	.	1r	.	0r	.
.	.	2e\	.	.	.	.	.
2r	.	1d	-vi-	1g	pro-	.	.
2B-\	et	.	.	.	.	.	.
=147	=147	=147	=147	=147	=147	=147	=147
2A\	fi-	1c	-fi-	1a	-ce-	0r	.
2c\	-li-	.	.	.	.	.	.
2B-\	-o	[1g	-can-	2g\	.	.	.
[2c\	si-	.	.	[2e\	-dit	.	.
=148	=148	=148	=148	=148	=148	=148	=148
4c\]	.	1g]	.	2e\]	.	0r	.
4B-\	.	.	.	.	.	.	.
4A\	.	.	.	4d\	qui	.	.
4G\	.	.	.	4e\	.	.	.
1F	-mul	1a	.	1f	cum	.	.
=149	=149	=149	=149	=149	=149	=149	=149
1r	.	2g\	.	2e\	pa-	0r	.
.	.	2e\	.	2c\	.	.	.
1BB-	a-	2.f\	.	1d	-tre	.	.
.	.	8e\L	.	.	.	.	.
.	.	8d\J	.	.	.	.	.
=150	=150	=150	=150	=150	=150	=150	=150
2.C/	.	0c	-tem	2.e\	et	1r	.
4D\	.	.	.	4f\	.	.	.
2E\	.	.	.	2g\	.	[1cc	qui
[2F\	.	.	.	[2a\	fi-	.	.
=151	=151	=151	=151	=151	=151	=151	=151
2F\]	.	1c	qui	2a\]	.	0cc_	.
2E\	.	.	.	2g\	.	.	.
1F	-do-	1F	.	2a\	.	.	.
.	.	.	.	2f\	-li-	.	.
=152	=152	=152	=152	=152	=152	=152	=152
1C	-ra-	1c	.	1e	-o	0cc_	.
[1F	.	2r	.	2r	.	.	.
.	.	2F/	ex	2f\	si-	.	.
=153	=153	=153	=153	=153	=153	=153	=153
1F]	.	2.A/	.	1f	-mul	1cc]	.
.	.	4B\	.	.	.	.	.
1C	-tur	1c	.	2e\	a-	1cc	ex
.	.	.	.	2c\	-do-	.	.
=154	=154	=154	=154	=154	=154	=154	=154
2r	.	1G	.	2.d\	-ra-	2.b\	pa-
2G\	et	.	.	.	.	.	.
.	.	.	.	4e\	.	4g/	.
2F\	.	1r	.	1f	.	2a/	.
2D\	con-	.	.	.	.	2b\	.
=155	=155	=155	=155	=155	=155	=155	=155
1C	-glo-	1g	pa-	1e	.	1cc	-tre
1F	.	1a	.	2f\	.	2r	.
.	.	.	.	2d\	.	[2dd\	fi-
=156	=156	=156	=156	=156	=156	=156	=156
2G\	.	2g\	-tre	1e	-tur	4dd\]	.
.	.	.	.	.	.	4b\	.
2A\	.	2e\	et	.	.	2cc\	.
2B-\	.	2d\	.	2r	.	2dd\	.
2G\	.	[2g\	fi-	[2d\	et	2b\	-li-
=157	=157	=157	=157	=157	=157	=157	=157
1A	.	2g\]	.	2d\]	.	1a	-o-
.	.	2f\	.	2c\	con-	.	.
2B-\	-ri-	2g\	-li-	2d\	-glo-	1g	-que
2c\	-fi-	2e\	-o-	2c\	.	.	.
=158	=158	=158	=158	=158	=158	=158	=158
2B-\	-ca-	1d	-que	2G/	.	1r	.
2c\	.	.	.	2c\	.	.	.
1d	.	2r	.	4Bni\	-ri-	1dd	pro-
.	.	.	.	2Bni\	-fi-	.	.
.	.	2f\	pro-	.	.	.	.
.	.	.	.	4A/	.	.	.
=159	=159	=159	=159	=159	=159	=159	=159
1c	-tur	2e\	-ce-	1c	-ca-	1ee	-ce-
.	.	2g\	.	.	.	.	.
2r	.	2f\	.	1d	.	2dd\	.
[2G\	qui	[2g\	.	.	.	[2b\	-dit
=160	=160	=160	=160	=160	=160	=160	=160
1G]	.	4g\]	.	2e\	.	2b\]	.
.	.	4f\	.	.	.	.	.
.	.	4e\	.	2g\	-tur	4a/	qui
.	.	4d\	.	.	.	4b\	.
1A	lo-	1c	-dit	2r	.	1cc	cum
.	.	.	.	2c\	qui	.	.
=161	=161	=161	=161	=161	=161	=161	=161
2G\	-cu-	1r	.	2d\	.	2b\	pa-
2E\	-tus	.	.	2e\	lo-	2g/	.
1D	est	1F	qui	1f	-cu-	1a	-tre
=162	=162	=162	=162	=162	=162	=162	=162
2r	.	2.G/	cum	1d	-tus	2.b\	et
1G	per	.	.	.	.	.	.
.	.	4A/	.	.	.	4cc\	.
.	.	2B\	.	[1g	est	2dd\	.
[2E\	pro-	[2c\	pa-	.	.	[2ee\	fi-
=163	=163	=163	=163	=163	=163	=163	=163
4E\]	.	2c\]	.	1g]	.	2ee\]	.
4F\	.	.	.	.	.	.	.
2G\	.	2B\	.	.	.	2dd\	.
1C	.	1c	-tre	2.e\	per	2ee\	.
.	.	.	.	.	.	2cc\	-li-
.	.	.	.	4c\	.	.	.
=164	=164	=164	=164	=164	=164	=164	=164
2r	.	1G	et	1d	.	1b	-o
2G\	.	.	.	.	.	.	.
2A\	.	[1c	fi-	1c	pro-	2r	.
[2F\	.	.	.	.	.	2cc\	si-
=165	=165	=165	=165	=165	=165	=165	=165
2F\]	.	1c]	.	2f\	.	1cc	-mul
2A\	.	.	.	2.f\	-phe-	.	.
1G	.	1G	-lio	.	.	2b\	a-
.	.	.	.	4e\	.	.	.
.	.	.	.	4e\	.	2g/	-do-
.	.	.	.	4d\	.	.	.
=166	=166	=166	=166	=166	=166	=166	=166
0F	.	2r	.	2.f\	.	2.a/	-ra-
.	.	2d\	si-	.	.	.	.
.	.	.	.	4g\	.	4b\	.
.	.	2c\	.	1a	-tas	1cc	.
.	.	2A/	-mul	.	.	.	.
=167	=167	=167	=167	=167	=167	=167	=167
1G	.	1G	a-	2r	.	1b	.
.	.	.	.	2g\	Et	.	.
1A	.	1c	-do-	2e\	u-	2cc\	.
.	.	.	.	2f\	.	2a/	.
=168	=168	=168	=168	=168	=168	=168	=168
1G	.	2d\	-ra-	1g	.	1b	-tur
.	.	2e\	.	.	.	.	.
2.F\	-phe-	2f\	.	2a\	.	2r	.
.	.	2d\	.	2f\	.	[2a/	et
4D\	.	.	.	.	.	.	.
=169	=169	=169	=169	=169	=169	=169	=169
1C	-tas	1e	-tur	1e	-nam	2a/]	.
.	.	.	.	.	.	2g/	con-
2r	.	2f\	et	2d\	sanc-	2a/	-glo-
2C/	Et	2g\	.	2e\	.	2g/	.
=170	=170	=170	=170	=170	=170	=170	=170
2D\	u-	2f\	con-	2f\	.	2d/	.
2E\	.	2g\	.	2c\	.	2g/	.
1D	.	1a	.	2r	.	4f#i/	-ri-
.	.	.	.	.	.	2f#i/	-fi-
.	.	.	.	[2d\	.	.	.
.	.	.	.	.	.	4e/	.
=171	=171	=171	=171	=171	=171	=171	=171
2G\	-nam	1g	-glo-	2d\]	.	1g	-ca-
2.G\	sanc-	.	.	2B-\	.	.	.
.	.	2r	.	1A	-tam	1a	.
4E\	.	.	.	.	.	.	.
2F\	.	[2d\	-ri-	.	.	.	.
=172	=172	=172	=172	=172	=172	=172	=172
1G	-tam	1d]	.	2r	.	2b\	.
.	.	.	.	2B-\	ca-	2dd\	-tur
1C	ca-	1e	-fi-	1c	-tho-	2r	.
.	.	.	.	.	.	2g/	qui
=173	=173	=173	=173	=173	=173	=173	=173
2F\	-tho-	2d\	-ca-	1d	.	2a/	.
2G\	.	2B\	.	.	.	2b\	lo-
2A\	.	1A	-tur	1c	.	1cc	-cu-
[2F\	.	.	.	.	.	.	.
=174	=174	=174	=174	=174	=174	=174	=174
2F\]	.	2r	.	1d	.	1a	-tus
1D	.	1d	qui	.	.	.	.
.	.	.	.	2.B-\	.	[1dd	est
[2G\	.	[2B-i\	lo-	.	.	.	.
.	.	.	.	4c\	-li-	.	.
=175	=175	=175	=175	=175	=175	=175	=175
2G\]	.	4B-\]	.	1d	-cam	1dd]	.
.	.	4c\	.	.	.	.	.
2F\	.	2d\	-cu-	.	.	.	.
2G\	.	1G	-tus	2r	.	2.b\	per
2E\	-li-	.	.	[2g\	ec-	.	.
.	.	.	.	.	.	4g/	.
=176	=176	=176	=176	=176	=176	=176	=176
1D	-cam	2r	.	2g\]	.	1a	.
.	.	2d\	est	2f\	.	.	.
2r	.	2e\	.	1g	.	1g	pro-
2E\	ec-	[2c\	per	.	.	.	.
=177	=177	=177	=177	=177	=177	=177	=177
2F\	-cle-	2c\]	.	2f\	.	2cc\	.
2E\	.	2e\	pro-	2.g\	-cle-	2.cc\	-phe-
1G	.	1d	-phe-	.	.	.	.
.	.	.	.	4f\	.	4b\	.
.	.	.	.	2d\	-si-	4b\	.
.	.	.	.	.	.	4a/	.
=178	=178	=178	=178	=178	=178	=178	=178
1r	.	0c	-tas	0e	-am	2.cc\	.
.	.	.	.	.	.	4dd\	.
1c	.	.	.	.	.	1ee	-tas
=179	=179	=179	=179	=179	=179	=179	=179
2B-\	.	1d	Et	1d	.	2r	.
1G	.	.	.	.	.	2dd\	Et
.	.	1e	.	1r	.	2b\	u-
2A\	.	.	.	.	.	2cc\	.
=180	=180	=180	=180	=180	=180	=180	=180
2B-\	.	1d	u-	0r	.	1dd	.
2.G\	.	.	.	.	.	.	.
.	.	2.c\	.	.	.	2ee\	.
4E\	.	.	.	.	.	.	.
2F\	-si-	.	.	.	.	2cc\	.
.	.	4A/	.	.	.	.	.
=181	=181	=181	=181	=181	=181	=181	=181
1G	-am	1G	-nam	2.d\	Con-	1b	-nam
.	.	.	.	4e\	.	.	.
1r	.	2r	.	2f\	.	2a/	sanc-
.	.	2G/	sanc-	[2g\	-fi-	2b\	.
=182	=182	=182	=182	=182	=182	=182	=182
0r	.	2A/	.	4g\]	.	2cc\	.
.	.	.	.	4f\	.	.	.
.	.	2B\	.	4e\	.	2g/	.
.	.	.	.	4d\	.	.	.
.	.	1A	-tam	2.c\	-te-	2r	.
.	.	.	.	.	.	[2a/	.
.	.	.	.	4B-\	.	.	.
=183	=183	=183	=183	=183	=183	=183	=183
0r	.	2d\	ca-	1d	-or	2a/]	.
.	.	2.d\	-tho-	.	.	2f/	.
.	.	.	.	2r	.	1e	-tam
.	.	4B\	.	.	.	.	.
.	.	2c\	-li-	2A/	u-	.	.
=184	=184	=184	=184	=184	=184	=184	=184
1D	Con-	1d	-cam	2B-\	.	2r	.
.	.	.	.	2F/	-num	2f/	ca-
1G	.	1G	ec-	2.B-\	bap-	1g	-tho-
.	.	.	.	4c\	.	.	.
=185	=185	=185	=185	=185	=185	=185	=185
2.F\	-fi-	2c\	-cle-	2.A/	-tis-	1a	.
.	.	2d\	.	.	.	.	.
4E\	-te-	.	.	4B-\	.	.	.
1C	-or	2e\	.	1c	-ma	1g	.
.	.	[2c\	.	.	.	.	.
=186	=186	=186	=186	=186	=186	=186	=186
2.F\	u-	2c\]	.	2r	.	1a	.
.	.	1A	.	1c	in	.	.
4G\	.	.	.	.	.	.	.
2A\	-nm	.	.	.	.	2.f/	.
2B-\	bap-	[2d\	.	2d\	re-	.	.
.	.	.	.	.	.	4g/	-li-
=187	=187	=187	=187	=187	=187	=187	=187
1A	-tis-	2d\]	.	2f\	.	1a	-cam
.	.	2c\	.	2.f\	-mis-	.	.
1G	-ma	2d\	.	.	.	2r	.
.	.	.	.	4d\	.	.	.
.	.	2B\	-si-	2e\	-si-	[2dd\	ec-
=188	=188	=188	=188	=188	=188	=188	=188
2F\	in	1A	-am	2.f\	-o-	2dd\]	.
2A\	.	.	.	.	.	2cc\	.
.	.	.	.	4e\	.	.	.
1G	.	2r	.	1g	-nem	1dd	.
.	.	2B\	Con-	.	.	.	.
=189	=189	=189	=189	=189	=189	=189	=189
1r	.	2c\	-fi-	2e\	pec-	2cc\	.
.	.	2B\	-te-	2d\	.	2.dd\	-cle-
1D	re-	1d	-or	1f	-ca-	.	.
.	.	.	.	.	.	4cc\	.
.	.	.	.	.	.	2a/	-si-
=190	=190	=190	=190	=190	=190	=190	=190
2.G\	-mis-	1r	.	2.g\	-to-	0b-i	-am
4A\	.	.	.	4f\	.	.	.
2B-\	.	1g	u-	1d	-rum	.	.
2c\	-si-	.	.	.	.	.	.
=191	=191	=191	=191	=191	=191	=191	=191
1d	-o-	2f\	.	2r	.	1a	.
.	.	1d	.	2f\	Et	.	.
2B-\	-nem	.	.	2g\	ex-	1r	.
[2A\	pec-	2e\	-num	[2a\	-pec-	.	.
=192	=192	=192	=192	=192	=192	=192	=192
4A\]	.	2f\	bap-	2a\]	.	0r	.
4F\	.	.	.	.	.	.	.
2G\	-ca-	2.d\	-tis-	4g\	.	.	.
.	.	.	.	4f\	.	.	.
1A	-to-	.	.	1e	-to	.	.
.	.	4B\	.	.	.	.	.
.	.	2c#i\	.	.	.	.	.
=193	=193	=193	=193	=193	=193	=193	=193
1D	-rum	1d	-ma	2d\	res-	2.a/	Con-
.	.	.	.	2f\	.	.	.
.	.	.	.	.	.	4b-i\	.
2r	.	1r	.	2e\	.	2cc\	.
2F\	Et	.	.	[2d\	.	[2dd\	-fi-
=194	=194	=194	=194	=194	=194	=194	=194
2BB-/	ex-	0r	.	2d\]	.	4dd\]	.
.	.	.	.	.	.	4cc\	.
2F\	.	.	.	2c\	.	4b-i\	.
.	.	.	.	.	.	4a/	.
1G	-pec-	.	.	1B-	.	2.g/	-te-
.	.	.	.	.	.	4f/	.
=195	=195	=195	=195	=195	=195	=195	=195
1F	-to	0r	.	2A/	.	1a	-or
.	.	.	.	1d	.	.	.
1r	.	.	.	.	.	2r	.
.	.	.	.	2c\	-sur-	2e/	u-
=196	=196	=196	=196	=196	=196	=196	=196
2D\	res-	1A	in	2d\	-rec-	2f/	.
2E\	-sur-	.	.	2c\	-ti-	2c/	-num
1F	-rec-	1d	re-	1A	-o-	2.f/	bap-
.	.	.	.	.	.	4g/	.
=197	=197	=197	=197	=197	=197	=197	=197
0C	-tio-	2.c\	-mis-	1G	-nem	2.e/	-tis-
.	.	4B\	.	.	.	4f/	.
.	.	1G	-si-	2r	.	1g	-ma
.	.	.	.	2c\	mor-	.	.
=198	=198	=198	=198	=198	=198	=198	=198
1C	-nem	2.c\	-o-	2.c\	-tu-	2r	.
.	.	.	.	.	.	1g	in
.	.	4d\	.	8B-/L	.	.	.
.	.	.	.	8A/J	.	.	.
1r	.	2e\	.	2G/	-o-	.	.
.	.	2f\	.	2F/	-rum	2a/	re-
=199	=199	=199	=199	=199	=199	=199	=199
1C	mor-	1e	.	2r	.	2cc\	.
.	.	.	.	2c\	et	2.cc\	-mis-
2F\	.	1d	.	2.d\	vi-	.	.
.	.	.	.	.	.	4a/	.
2G\	-tu-	.	.	.	.	2b\	-si
.	.	.	.	8c\L	.	.	.
.	.	.	.	8B-\J	.	.	.
=200	=200	=200	=200	=200	=200	=200	=200
1A	-o-	2c\	.	1A	-tam	2.cc\	o-
.	.	2e\	.	.	.	.	.
.	.	.	.	.	.	4b\	.
[1D	-rum	1d	-nem	2r	.	1dd	-nem
.	.	.	.	[2d\	ven-	.	.
=201	=201	=201	=201	=201	=201	=201	=201
1D]	.	1r	.	2d\]	.	2b\	pec-
.	.	.	.	2f\	.	2a/	.
2r	.	1A	pec-	1e	.	1cc	-ca
2A\	et	.	.	.	.	.	.
=202	=202	=202	=202	=202	=202	=202	=202
2B-\	vi-	2.d\	.	2d\	.	2.dd\	to-
2A\	.	.	.	1f	-tu-	.	.
.	.	4e\	-ca-	.	.	4cc\	.
2d\	-tam	2f\	-to-	.	.	1a	-rum
2c\	ven-	2g\	.	4e\	.	.	.
.	.	.	.	4d\	.	.	.
=203	=203	=203	=203	=203	=203	=203	=203
1A	-tu-	1a	-rum	1c	-ri	2r	.
.	.	.	.	.	.	2cc\	Et
2B-\	-ri-	2f\	Et	2r	.	2dd\	ex-
[2c\	-se-	[2e\	ex-	[2c\	se-	[2ee\	-pec-
=204	=204	=204	=204	=204	=204	=204	=204
2c\]	.	4e\]	.	2c\]	.	2ee\]	.
.	.	4c\	.	.	.	.	.
4B-\	.	2d\	.	2f\	.	4dd\	.
4A\	.	.	.	.	.	4cc\	.
1G	.	1e	-pec-	2g\	.	1b	-to
.	.	.	.	2e\	.	.	.
=205	=205	=205	=205	=205	=205	=205	=205
1F	.	1A	-to	1f	.	2a/	res-
.	.	.	.	.	.	2cc\	.
2G\	.	2r	.	2e\	.	2b\	.
[2F\	.	2c\	res-	2f\	.	[2a/	.
=206	=206	=206	=206	=206	=206	=206	=206
2F\]	.	2F/	.	2d\	.	2a/]	.
2E\	.	2c\	.	2.c\	.	2g/	.
2F\	.	1d	-sur-	.	.	1f	.
.	.	.	.	4A/	.	.	.
2D\	.	.	.	2B-\	.	.	.
=207	=207	=207	=207	=207	=207	=207	=207
2E\	.	1c	-rec-	1c	.	2e/	.
1F	.	.	.	.	.	1a	.
.	.	1r	.	2d\	.	.	.
2E\	.	.	.	[2c\	.	2g/	-sur-
=208	=208	=208	=208	=208	=208	=208	=208
2F\	.	2A/	.	2c\]	.	2a/	-rec-
2D\	-cu-	2B-i\	.	2B-\	.	2g/	-ti-
1C	-li	1c	-ti-	4A/	.	1e	-o-
.	.	.	.	4G/	.	.	.
.	.	.	.	2A/	-cu-	.	.
=209	=209	=209	=209	=209	=209	=209	=209
1r	.	0G	-o-	1B-	-li	1d	-nem
[1C	A-	.	.	[1c	A-	2r	.
.	.	.	.	.	.	2g/	mor-
=210	=210	=210	=210	=210	=210	=210	=210
1C]	.	1G	-nem	1c]	.	2.g/	-tu-
.	.	.	.	.	.	8f/L	.
.	.	.	.	.	.	8e/J	.
1F	.	1r	.	1A	.	2d/	-o-
.	.	.	.	.	.	2c/	-rum
=211	=211	=211	=211	=211	=211	=211	=211
2G\	.	1G	mor-	2G/	.	2r	.
2E\	.	.	.	2c\	.	2g/	et
2F\	.	2c\	.	2A/	.	2.a/	vi-
2D\	.	2d\	-tu-	2B-\	.	.	.
.	.	.	.	.	.	8g/L	.
.	.	.	.	.	.	8f/J	.
=212	=212	=212	=212	=212	=212	=212	=212
1C	.	1e	-o-	0c	.	1e	-tam
2.F\	.	[1A	-rum	.	.	2r	.
.	.	.	.	.	.	[2a/	ven-
4G\	.	.	.	.	.	.	.
=213	=213	=213	=213	=213	=213	=213	=213
1A	.	1A]	.	1f	.	2a/]	.
.	.	.	.	.	.	2cc\	.
1G	.	2r	.	1g	.	1b	.
.	.	2e\	et	.	.	.	.
=214	=214	=214	=214	=214	=214	=214	=214
2F\	.	2f\	vi-	1a	.	2a/	.
1A	.	2e\	.	.	.	1cc	-tu-
.	.	2a\	-tam	2f\	.	.	.
2B-\	.	2g\	ven-	2d\	.	4b\	.
.	.	.	.	.	.	4a/	.
=215	=215	=215	=215	=215	=215	=215	=215
1c	.	1e	-tu-	1e	.	1g	-ri
1B-	.	2f\	-ri	1d	.	2r	.
.	.	[2g\	se-	.	.	[2g/	se-
=216	=216	=216	=216	=216	=216	=216	=216
1c	.	2g\]	.	2e\	.	2g/]	.
.	.	4f\	.	2c\	.	2cc\	.
.	.	4e\	.	.	.	.	.
1G	.	1d	-cu-	2r	.	2dd\	.
.	.	.	.	2g\	.	2b\	-cu-
=217	=217	=217	=217	=217	=217	=217	=217
1A	.	1c	-li	2e\	.	1cc	-li
.	.	.	.	2f\	.	.	.
2G\	.	2d\	A-	2g\	.	2b\	A-
2A\	.	[2c\	.	[2f\	.	2cc\	.
=218	=218	=218	=218	=218	=218	=218	=218
2F\	.	2c\]	.	2f\]	.	2a/	.
2G\	.	2B\	.	2.e\	.	2.g/	.
2E\	.	2c\	.	.	.	.	.
.	.	.	.	4c\	.	4e/	.
2F\	.	2A/	.	2d\	.	2f/	.
=219	=219	=219	=219	=219	=219	=219	=219
2E\	.	2B\	.	1e	.	1g	.
2C/	.	1c	.	.	.	.	.
2F\	.	.	.	2f\	.	2a/	.
2G\	.	2B\	.	2d\	.	[2g/	.
=220	=220	=220	=220	=220	=220	=220	=220
2E\	.	2c\	.	2e\	.	2g/]	.
2F\	.	2A/	.	2c\	.	2f/	.
1C	.	1G	.	2r	.	4e/	.
.	.	.	.	.	.	4d/	.
.	.	.	.	2c\	.	2e/	.
=221	=221	=221	=221	=221	=221	=221	=221
0Fl	-men.	0Fl	-men.	0cl	-men.	0fl	-men.
==	==	==	==	==	==	==	==
*-	*-	*-	*-	*-	*-	*-	*-
!!!RDF**kern: l=long note in original notation
!!!RDF**kern: i=editorial accidental
!!!RDF**kern: V=start of tuplet marker
!!!RDF**kern: Z=end of tuplet marker
!!!ENC:	Chris Gage 08-20-2012
!!!END:	2014/05/13/
!!!EED:	Jesse Rodin
!!!EEV:	2014/05/14/
!!!ONB:	Translated from MusicXML and edited on 2014/05/14/ by Craig Sapp
!!muse2ps: T^@{OPR}^u^@{ONM}{. }@{OTL}^C^@{COM}^i2I150v85,85,85,130Q16
